packages/ffe-icons/icons/filled/sm/conversion_path.svg

<svg xmlns="http://www.w3.org/2000/svg" height="20" viewBox="0 -960 960 960" width="20"><path d="M744-154.001q-39.461 0-68.731-24-29.269-24-37.576-60H396q-51.154 0-86.576-35.423-35.423-35.422-35.423-86.576 0-51.154 35.423-86.576 35.422-35.423 86.576-35.423h120q38.775 0 66.388-27.708 27.613-27.707 27.613-66.616 0-38.908-27.613-66.293-27.613-27.385-66.388-27.385H322.307q-7.923 36-37.384 60-29.462 24-68.923 24-45.833 0-77.916-32.07t-32.083-77.884q0-45.814 32.083-77.929T216-805.999q39.461 0 68.923 24 29.461 24 37.384 60H516q61.154 0 103.576 42.423Q661.999-637.154 661.999-576q0 61.154-42.423 103.576Q577.154-430.001 516-430.001H396q-28.875 0-49.438 20.637-20.563 20.637-20.563 49.616t20.563 49.364q20.563 20.385 49.438 20.385h241.693q7.923-36 37.384-60 29.462-24 68.923-24 45.833 0 77.916 32.07t32.083 77.884q0 45.814-32.083 77.929T744-154.001ZM216-637.999q24.246 0 41.124-16.877 16.877-16.878 16.877-41.124 0-24.246-16.877-41.124-16.878-16.877-41.124-16.877-24.246 0-41.124 16.877-16.877 16.878-16.877 41.124 0 24.246 16.877 41.124 16.878 16.877 41.124 16.877Z"/></svg>

<svg xmlns="http://www.w3.org/2000/svg" height="20" viewBox="0 -960 960 960" width="20"><path d="M744-154q-39.46 0-68.73-24-29.27-24-37.58-60H396q-51.15 0-86.58-35.42Q274-308.85 274-360t35.42-86.58Q344.85-482 396-482h120q38.78 0 66.39-27.71Q610-537.41 610-576.32t-27.61-66.3Q554.78-670 516-670H322.31q-7.93 36-37.39 60T216-586q-45.83 0-77.92-32.07Q106-650.14 106-695.95q0-45.82 32.08-77.93Q170.17-806 216-806q39.46 0 68.92 24t37.39 60H516q61.15 0 103.58 42.42Q662-637.15 662-576t-42.42 103.58Q577.15-430 516-430H396q-28.88 0-49.44 20.64Q326-388.73 326-359.75t20.56 49.37Q367.12-290 396-290h241.69q7.93-36 37.39-60T744-374q45.83 0 77.92 32.07Q854-309.86 854-264.05q0 45.82-32.08 77.93Q789.83-154 744-154ZM216-638q24.25 0 41.12-16.88Q274-671.75 274-696q0-24.25-16.88-41.12Q240.25-754 216-754q-24.25 0-41.12 16.88Q158-720.25 158-696q0 24.25 16.88 41.12Q191.75-638 216-638Z"/></svg>
